X: 1
T: Forest Wedding
C: by Todd Silverstein
R: jig
B: The Portland Collection, v.2 p.65
Z: 2011 John Chambers <jc:trillian.mit.edu>
M: 6/8
L: 1/8
K: Dm
|:\
"Dm"D3 D2E | FED D3 | "Gm"G2D G2A | BAG GAB | "A"AA2- AA^c |
"A7"e3- e2^c |1 "Dm"dfe dcB | "A7"AGF ED^C :|2 "Dm"d2f "A7"ed^c | "Dm"d2A d2e ||
[|\
"Dm"f3 f2g | fed d2A | "Gm"B3 B2c | BAG G3 |
"A7"e3- eef | g3 g2e | "Dm"fed edc | dcB "A7"Ade |]
[|\
"Dm"f3 f2g | fed d2A | "Gm"B3 B2c | BAG G3 |
"A7"e3- eed | ^c3- cde | "Dm"d2f "A7"ed^c | "Dm"d2z d2z |]
